assets/symbols/mulberry/broom.svg

<svg height="850.394" viewBox="0 0 850.394 850.394" width="850.394" xmlns="http://www.w3.org/2000/svg"><path d="m568.6 712.88v89.561h-35.09v-80.53h15.82c7.74-.001 14.66-3.511 19.27-9.031zm-65.34 9.03h30.25v80.53h-30.25zm-31.07 0h31.069v80.53h-31.069z" fill="#fff400"/><path d="m441.93 721.91h30.261v80.53h-30.261zm-28.62 0h28.62v80.53h-28.62zm-30.25 0h30.25v80.53h-30.25zm-31.07 0h31.07v80.53h-31.07zm-30.26 0h30.26v80.53h-30.26zm-34.26-9.05c4.59 5.529 11.52 9.05 19.27 9.05h14.99v80.53h-34.27v-89.57z" fill="#fff400"/><path d="m574.4 696.83c0 6.11-2.181 11.7-5.801 16.05-4.609 5.521-11.529 9.03-19.27 9.03h-242.589c-7.75 0-14.68-3.521-19.27-9.05a24.967 24.967 0 0 1 -5.8-16.03c0-6.93 2.81-13.19 7.35-17.72a24.953 24.953 0 0 1 17.72-7.341h242.59c13.85.001 25.07 11.211 25.07 25.061zm-118.74-620.05h-.021v589.82h-53.8v-517.29l.09-72.26c0-17.36 12.03-31.43 26.86-31.43 14.761 0 26.751 13.92 26.871 31.16z" fill="#9c5b16"/><g fill="none"><g stroke="#231f20" stroke-width="21"><path d="m287.47 712.86a24.967 24.967 0 0 1 -5.8-16.03c0-6.93 2.81-13.19 7.35-17.72a24.953 24.953 0 0 1 17.72-7.341h242.59c13.85 0 25.07 11.211 25.07 25.061 0 6.11-2.181 11.7-5.801 16.05-4.609 5.521-11.529 9.03-19.27 9.03h-242.589c-7.75 0-14.68-3.52-19.27-9.05zm168.17-636.08v589.82h-53.8v-517.29l.09-72.26c0-17.36 12.03-31.43 26.86-31.43 14.76 0 26.75 13.92 26.87 31.16.01.09.01.18.01.27"/><path d="m568.6 712.88v89.56h-281.14v-89.57m34.27 9.04v80.53m30.26-80.53v80.53m31.07-80.53v80.53m30.25-80.53v80.53m28.62-80.53v80.53m30.26-80.53v80.53m31.07-80.53v80.53m30.25-80.53v80.53"/></g><path d="m0 0h850.394v850.394h-850.394z"/></g></svg>

<svg xmlns="http://www.w3.org/2000/svg" width="850.394" height="850.394" viewBox="0 0 850.394 850.394" overflow="visible"><path d="M568.6 712.88v89.561h-35.09v-80.53h15.82c7.74-.001 14.66-3.511 19.27-9.031zM503.26 721.91h30.25v80.53h-30.25zM472.19 721.91h31.069v80.53H472.19z" fill="#fff400"/><path fill="#fff400" d="M441.93 721.91h30.261v80.53H441.93zM413.31 721.91h28.62v80.53h-28.62zM383.06 721.91h30.25v80.53h-30.25zM351.99 721.91h31.07v80.53h-31.07zM321.73 721.91h30.26v80.53h-30.26zM287.47 712.86c4.59 5.529 11.52 9.05 19.27 9.05h14.99v80.53h-34.27v-89.57l.01-.01z"/><path d="M574.4 696.83c0 6.11-2.181 11.7-5.801 16.05-4.609 5.521-11.529 9.03-19.27 9.03H306.74c-7.75 0-14.68-3.521-19.27-9.05a24.967 24.967 0 0 1-5.8-16.03c0-6.93 2.81-13.19 7.35-17.72a24.953 24.953 0 0 1 17.72-7.341h242.59c13.85.001 25.07 11.211 25.07 25.061zM455.66 76.78h-.021V666.6h-53.8V149.31l.09-72.26c0-17.36 12.03-31.43 26.86-31.43 14.761 0 26.751 13.92 26.871 31.16z" fill="#9c5b16"/><g fill="none" stroke="#231f20" stroke-width="21"><path d="M287.47 712.86a24.967 24.967 0 0 1-5.8-16.03c0-6.93 2.81-13.19 7.35-17.72a24.953 24.953 0 0 1 17.72-7.341h242.59c13.85 0 25.07 11.211 25.07 25.061 0 6.11-2.181 11.7-5.801 16.05-4.609 5.521-11.529 9.03-19.27 9.03H306.74c-7.75 0-14.68-3.52-19.27-9.05zM455.64 76.78V666.6h-53.8V149.31l.09-72.26c0-17.36 12.03-31.43 26.86-31.43 14.76 0 26.75 13.92 26.87 31.16.01.09.01.18.01.27"/><path d="M568.6 712.88v89.56H287.46v-89.57M321.73 721.91v80.53M351.99 721.91v80.53M383.06 721.91v80.53M413.31 721.91v80.53M441.93 721.91v80.53M472.19 721.91v80.53M503.26 721.91v80.53M533.51 721.91v80.53"/></g><path fill="none" d="M0 0h850.394v850.394H0z"/></svg>
